X:53
T:Charlie Hunter's
R:jig
C:Bobby McLeod (1925-1991), Mull, Scotland
D:Boys of the Lough: Sweet Rural Shade
D:Music at Matt Molloy's
Z:id:hn-jig-53
M:6/8
K:D
DFA DGB|Adf a2g|fef dcd|ecA GFE|DFA DGB|Adf a2g|fef gec|1 edc d3:|2 edc dfg||
|:afd dcd|BGF G2F|EGB e2d|cec Aag|fdA DFA|GBd g2g|fef gec|1 edc dfg:|2 edc d3||

